X:437
T:Lady Mary Murray
R:Strathspey
C:Nathaniel Gow
B:The Athole Collection
M:C
L:1/8
K:G
E|D>EG>B d/c/B/A/ B<G|A>Bc>B A>GF>E|D>EG>B d/c/B/A/ B<G|
AB G/G/G G:|
g|d>eg>a b/a/g/f/ g>e|dB A>dF>D|d>eg>a b/a/g/f/ g>e|
d>Bg>B G/G/G G>e|d>eg>b aGF>E|D>EG>B d/c/B/A/ B>G|
AB G/G/G G||
